resources/haticons/SVG/qrcode.svg

<!-- Generated by IcoMoon.io -->
<svg version="1.1" xmlns="http://www.w3.org/2000/svg" width="24" height="24" viewBox="0 0 24 24">
<title>qrcode</title>
<path d="M7.5 1.5h-6v6h6v-6zM9 0v0 9h-9v-9h9zM3 3h3v3h-3zM22.5 1.5h-6v6h6v-6zM24 0v0 9h-9v-9h9zM18 3h3v3h-3zM7.5 16.5h-6v6h6v-6zM9 15v0 9h-9v-9h9zM3 18h3v3h-3zM10.5 0h1.5v1.5h-1.5zM12 1.5h1.5v1.5h-1.5zM10.5 3h1.5v1.5h-1.5zM12 4.5h1.5v1.5h-1.5zM10.5 6h1.5v1.5h-1.5zM12 7.5h1.5v1.5h-1.5zM10.5 9h1.5v1.5h-1.5zM10.5 12h1.5v1.5h-1.5zM12 13.5h1.5v1.5h-1.5zM10.5 15h1.5v1.5h-1.5zM12 16.5h1.5v1.5h-1.5zM10.5 18h1.5v1.5h-1.5zM12 19.5h1.5v1.5h-1.5zM10.5 21h1.5v1.5h-1.5zM12 22.5h1.5v1.5h-1.5zM22.5 12h1.5v1.5h-1.5zM1.5 12h1.5v1.5h-1.5zM3 10.5h1.5v1.5h-1.5zM0 10.5h1.5v1.5h-1.5zM6 10.5h1.5v1.5h-1.5zM7.5 12h1.5v1.5h-1.5zM9 10.5h1.5v1.5h-1.5zM13.5 12h1.5v1.5h-1.5zM15 10.5h1.5v1.5h-1.5zM16.5 12h1.5v1.5h-1.5zM18 10.5h1.5v1.5h-1.5zM19.5 12h1.5v1.5h-1.5zM21 10.5h1.5v1.5h-1.5zM22.5 15h1.5v1.5h-1.5zM13.5 15h1.5v1.5h-1.5zM15 13.5h1.5v1.5h-1.5zM16.5 15h1.5v1.5h-1.5zM19.5 15h1.5v1.5h-1.5zM21 13.5h1.5v1.5h-1.5zM22.5 18h1.5v1.5h-1.5zM13.5 18h1.5v1.5h-1.5zM15 16.5h1.5v1.5h-1.5zM18 16.5h1.5v1.5h-1.5zM19.5 18h1.5v1.5h-1.5zM21 16.5h1.5v1.5h-1.5zM22.5 21h1.5v1.5h-1.5zM15 19.5h1.5v1.5h-1.5zM16.5 21h1.5v1.5h-1.5zM18 19.5h1.5v1.5h-1.5zM19.5 21h1.5v1.5h-1.5zM15 22.5h1.5v1.5h-1.5zM18 22.5h1.5v1.5h-1.5zM21 22.5h1.5v1.5h-1.5z"></path>
</svg>

<svg xmlns="http://www.w3.org/2000/svg" width="24" height="24"><path d="M7.5 1.5h-6v6h6v-6zM9 0v9H0V0h9zM3 3h3v3H3zm19.5-1.5h-6v6h6v-6zM24 0v9h-9V0h9zm-6 3h3v3h-3zM7.5 16.5h-6v6h6v-6zM9 15v9H0v-9h9zm-6 3h3v3H3zm7.5-18H12v1.5h-1.5zM12 1.5h1.5V3H12zM10.5 3H12v1.5h-1.5zM12 4.5h1.5V6H12zM10.5 6H12v1.5h-1.5zM12 7.5h1.5V9H12zM10.5 9H12v1.5h-1.5zm0 3H12v1.5h-1.5zm1.5 1.5h1.5V15H12zM10.5 15H12v1.5h-1.5zm1.5 1.5h1.5V18H12zM10.5 18H12v1.5h-1.5zm1.5 1.5h1.5V21H12zM10.5 21H12v1.5h-1.5zm1.5 1.5h1.5V24H12zM22.5 12H24v1.5h-1.5zm-21 0H3v1.5H1.5zM3 10.5h1.5V12H3zm-3 0h1.5V12H0zm6 0h1.5V12H6zM7.5 12H9v1.5H7.5zM9 10.5h1.5V12H9zm4.5 1.5H15v1.5h-1.5zm1.5-1.5h1.5V12H15zm1.5 1.5H18v1.5h-1.5zm1.5-1.5h1.5V12H18zm1.5 1.5H21v1.5h-1.5zm1.5-1.5h1.5V12H21zm1.5 4.5H24v1.5h-1.5zm-9 0H15v1.5h-1.5zm1.5-1.5h1.5V15H15zm1.5 1.5H18v1.5h-1.5zm3 0H21v1.5h-1.5zm1.5-1.5h1.5V15H21zm1.5 4.5H24v1.5h-1.5zm-9 0H15v1.5h-1.5zm1.5-1.5h1.5V18H15zm3 0h1.5V18H18zm1.5 1.5H21v1.5h-1.5zm1.5-1.5h1.5V18H21zm1.5 4.5H24v1.5h-1.5zM15 19.5h1.5V21H15zm1.5 1.5H18v1.5h-1.5zm1.5-1.5h1.5V21H18zm1.5 1.5H21v1.5h-1.5zM15 22.5h1.5V24H15zm3 0h1.5V24H18zm3 0h1.5V24H21z"/></svg>
